public/img/icons/prize1-label.svg

<svg width="21" height="17" viewBox="0 0 21 17" fill="none" xmlns="http://www.w3.org/2000/svg">
<path d="M13.1216 1.70453L13.1216 3.70453M13.1216 7.70453L13.1216 9.70453M13.1216 13.7045L13.1216 15.7045M3.12158 1.70453C2.59115 1.70453 2.08244 1.91524 1.70737 2.29032C1.3323 2.66539 1.12158 3.1741 1.12158 3.70453L1.12158 6.70453C1.65202 6.70453 2.16072 6.91524 2.5358 7.29032C2.91087 7.66539 3.12158 8.1741 3.12158 8.70453C3.12158 9.23496 2.91087 9.74367 2.5358 10.1187C2.16072 10.4938 1.65202 10.7045 1.12158 10.7045L1.12158 13.7045C1.12158 14.235 1.3323 14.7437 1.70737 15.1187C2.08244 15.4938 2.59115 15.7045 3.12158 15.7045L17.1216 15.7045C17.652 15.7045 18.1607 15.4938 18.5358 15.1187C18.9109 14.7437 19.1216 14.235 19.1216 13.7045L19.1216 10.7045C18.5911 10.7045 18.0824 10.4938 17.7074 10.1187C17.3323 9.74367 17.1216 9.23496 17.1216 8.70453C17.1216 8.1741 17.3323 7.66539 17.7074 7.29032C18.0824 6.91524 18.5911 6.70453 19.1216 6.70453L19.1216 3.70453C19.1216 3.1741 18.9109 2.66539 18.5358 2.29031C18.1607 1.91524 17.652 1.70453 17.1216 1.70453L3.12158 1.70453Z" stroke="#4348BF" stroke-width="2" stroke-linecap="round" stroke-linejoin="round"/>
</svg>

<svg width="21" height="17" fill="none" xmlns="http://www.w3.org/2000/svg"><path d="M13.122 1.705v2m0 4v2m0 4v2m-10-14a2 2 0 0 0-2 2v3a2 2 0 1 1 0 4v3a2 2 0 0 0 2 2h14a2 2 0 0 0 2-2v-3a2 2 0 1 1 0-4v-3a2 2 0 0 0-2-2h-14Z" stroke="#4348BF" stroke-width="2" stroke-linecap="round" stroke-linejoin="round"/></svg>
